src/assets/duotone/Buildings.svg

<?xml version="1.0" encoding="UTF-8"?>
<svg width="24" height="24" viewBox="0 0 24 24" xmlns="http://www.w3.org/2000/svg">
 <path d="M10.11 4C10.03 4.3 10 4.63 10 5V8H5V6C5 4.9 5.9 4 7 4H10.11Z" opacity=".6"/>
 <path d="m10 19v-11h-5c-2 0-3 1-3 3v8c0 2 1 3 3 3h8c-2 0-3-1-3-3zm-3.25-2c0 0.41-0.34 0.75-0.75 0.75s-0.75-0.34-0.75-0.75v-4c0-0.41 0.34-0.75 0.75-0.75s0.75 0.34 0.75 0.75v4z"/>
 <path d="m14 22h-1c-2 0-3-1-3-3v-14c0-2 1-3 3-3h6c2 0 3 1 3 3v14c0 2-1 3-3 3h-1" opacity=".4"/>
 <path d="m18 18v4h-4v-4c0-0.55 0.45-1 1-1h2c0.55 0 1 0.45 1 1z"/>
 <path d="m14 13.75c-0.41 0-0.75-0.34-0.75-0.75v-5c0-0.41 0.34-0.75 0.75-0.75s0.75 0.34 0.75 0.75v5c0 0.41-0.34 0.75-0.75 0.75z"/>
 <path d="m18 13.75c-0.41 0-0.75-0.34-0.75-0.75v-5c0-0.41 0.34-0.75 0.75-0.75s0.75 0.34 0.75 0.75v5c0 0.41-0.34 0.75-0.75 0.75z"/>
</svg>

<svg width="24" height="24" viewBox="0 0 24 24"  xmlns="http://www.w3.org/2000/svg">
<path opacity="0.6" d="M10.11 4C10.03 4.3 10 4.63 10 5V8H5V6C5 4.9 5.9 4 7 4H10.11Z" />
<path d="M10 19V8H5C3 8 2 9 2 11V19C2 21 3 22 5 22H13C11 22 10 21 10 19ZM6.75 17C6.75 17.41 6.41 17.75 6 17.75C5.59 17.75 5.25 17.41 5.25 17V13C5.25 12.59 5.59 12.25 6 12.25C6.41 12.25 6.75 12.59 6.75 13V17Z" />
<path opacity="0.4" d="M14 22H13C11 22 10 21 10 19V5C10 3 11 2 13 2H19C21 2 22 3 22 5V19C22 21 21 22 19 22H18" />
<path d="M18 18V22H14V18C14 17.45 14.45 17 15 17H17C17.55 17 18 17.45 18 18Z" />
<path d="M14 13.75C13.59 13.75 13.25 13.41 13.25 13V8C13.25 7.59 13.59 7.25 14 7.25C14.41 7.25 14.75 7.59 14.75 8V13C14.75 13.41 14.41 13.75 14 13.75Z" />
<path d="M18 13.75C17.59 13.75 17.25 13.41 17.25 13V8C17.25 7.59 17.59 7.25 18 7.25C18.41 7.25 18.75 7.59 18.75 8V13C18.75 13.41 18.41 13.75 18 13.75Z" />
</svg>
